symbols/web/motorcycle/materialsymbolsoutlined/motorcycle_wght200gradN25fill1_24px.svg

<svg xmlns="http://www.w3.org/2000/svg" height="24" width="24"><path d="M5.475 17.875q-1.625 0-2.762-1.125-1.138-1.125-1.138-2.775 0-1.625 1.138-2.75Q3.85 10.1 5.475 10.1h11.75l-3.05-3.05h-2.75v-.925h3.125l3.975 3.975q1.625-.025 2.763 1.125 1.137 1.15 1.137 2.75 0 1.65-1.125 2.775t-2.775 1.125q-1.625 0-2.75-1.125t-1.125-2.775q0-.825.362-1.563.363-.737.963-1.312H14.3l-3.35 3.35H9.3q-.125 1.45-1.225 2.437-1.1.988-2.6.988Zm13.05-.925q1.25 0 2.113-.863.862-.862.862-2.112 0-1.225-.862-2.088-.863-.862-2.088-.862-1.25 0-2.112.862-.863.863-.863 2.088 0 1.25.85 2.112.85.863 2.1.863Zm-13.05 0q1.1 0 1.937-.725.838-.725 1.013-1.775h-2.95v-.925h2.95q-.175-1.075-1.013-1.788-.837-.712-1.937-.712-1.25 0-2.112.862-.863.863-.863 2.088 0 1.25.863 2.112.862.863 2.112.863Z"/></svg>

<svg xmlns="http://www.w3.org/2000/svg" height="24" width="24"><path d="M5.475 17.875Q3.85 17.875 2.713 16.75Q1.575 15.625 1.575 13.975Q1.575 12.35 2.713 11.225Q3.85 10.1 5.475 10.1H17.225L14.175 7.05H11.425V6.125H14.55L18.525 10.1Q20.15 10.075 21.288 11.225Q22.425 12.375 22.425 13.975Q22.425 15.625 21.3 16.75Q20.175 17.875 18.525 17.875Q16.9 17.875 15.775 16.75Q14.65 15.625 14.65 13.975Q14.65 13.15 15.012 12.412Q15.375 11.675 15.975 11.1H14.3L10.95 14.45H9.3Q9.175 15.9 8.075 16.887Q6.975 17.875 5.475 17.875ZM18.525 16.95Q19.775 16.95 20.638 16.087Q21.5 15.225 21.5 13.975Q21.5 12.75 20.638 11.887Q19.775 11.025 18.55 11.025Q17.3 11.025 16.438 11.887Q15.575 12.75 15.575 13.975Q15.575 15.225 16.425 16.087Q17.275 16.95 18.525 16.95ZM5.475 16.95Q6.575 16.95 7.412 16.225Q8.25 15.5 8.425 14.45H5.475V13.525H8.425Q8.25 12.45 7.412 11.737Q6.575 11.025 5.475 11.025Q4.225 11.025 3.363 11.887Q2.5 12.75 2.5 13.975Q2.5 15.225 3.363 16.087Q4.225 16.95 5.475 16.95Z"/></svg>
